static/logos/facebook-wordmark-color.svg

<svg width="100" height="21" viewBox="0 0 100 21" fill="none" xmlns="http://www.w3.org/2000/svg">
<g clip-path="url(#clip0_1_2829)">
<path d="M7.76054 3.00721C6.59278 3.00721 6.25514 3.52514 6.25514 4.66751V6.56257H9.37002L9.05779 9.62419H6.25635V18.9156H2.51827V9.62419H0V6.56257H2.51827V4.71954C2.51827 1.6313 3.76349 4.795e-05 7.23776 4.795e-05C7.96578 -0.00164622 8.69332 0.0415543 9.416 0.129531V3.01084L7.76054 3.00721Z" fill="#1877F2"/>
<path d="M9.63281 12.3495C9.63281 8.89818 11.2677 6.29883 14.6936 6.29883C16.562 6.29883 17.7031 7.25967 18.249 8.45286V6.56264H21.8296V18.9156H18.249V17.0471C17.7298 18.2416 16.562 19.1757 14.6936 19.1757C11.2677 19.1757 9.63281 16.58 9.63281 13.1252V12.3495ZM13.3697 13.1808C13.3697 15.0226 14.0437 16.2424 15.7827 16.2424C17.3147 16.2424 18.0928 15.1267 18.0928 13.3623V12.122C18.0928 10.3576 17.3147 9.24186 15.7827 9.24186C14.0437 9.24186 13.3697 10.4617 13.3697 12.3035V13.1808Z" fill="#1877F2"/>
<path d="M29.6112 6.30237C31.0634 6.30237 32.4393 6.61457 33.192 7.13251L32.3618 9.78027C31.5832 9.4095 30.7324 9.21442 29.8702 9.20908C27.8456 9.20908 26.9659 10.3769 26.9659 12.376V13.1021C26.9659 15.1012 27.848 16.2689 29.8702 16.2689C30.7324 16.2635 31.5832 16.0686 32.3618 15.6978L33.192 18.3443C32.4393 18.8635 31.0645 19.1758 29.6112 19.1758C25.2245 19.1758 23.2266 16.8135 23.2266 13.0246V12.4534C23.2266 8.66453 25.2245 6.30237 29.6112 6.30237Z" fill="#1877F2"/>
<path d="M33.6875 13.2108V12.1217C33.6875 8.61843 35.6854 6.31311 39.7611 6.31311C43.6021 6.31311 45.2889 8.64867 45.2889 12.0745V14.0471H37.4231C37.5018 15.734 38.2545 16.4866 40.3275 16.4866C41.73 16.4866 43.2088 16.2011 44.2991 15.734L44.9827 18.2934C43.9965 18.8138 41.9719 19.2022 40.1823 19.2022C35.4518 19.2009 33.6875 16.8412 33.6875 13.2108ZM37.4243 11.6014H41.9405V11.2904C41.9405 9.94108 41.3959 8.87011 39.7623 8.87011C38.0742 8.87133 37.4243 9.93624 37.4243 11.5965V11.6014Z" fill="#1877F2"/>
<path d="M59.1399 13.1286C59.1399 16.5798 57.4796 19.1792 54.0574 19.1792C52.189 19.1792 50.8917 18.245 50.3725 17.0506V18.919H46.8438V0.359343L50.5807 0.0205078V8.27357C51.1252 7.18446 52.3196 6.30106 54.0587 6.30106C57.4844 6.30106 59.1411 8.89679 59.1411 12.3517L59.1399 13.1286ZM55.4031 12.2718C55.4031 10.5329 54.729 9.23562 52.938 9.23562C51.406 9.23562 50.5758 10.3247 50.5758 12.0903V13.3876C50.5758 15.1519 51.406 16.2422 52.938 16.2422C54.729 16.2422 55.4031 14.945 55.4031 13.206V12.2718Z" fill="#1877F2"/>
<path d="M60.3906 13.05V12.428C60.3906 8.87146 62.4152 6.30237 66.5417 6.30237C70.6682 6.30237 72.694 8.87146 72.694 12.428V13.05C72.694 16.6054 70.6695 19.1758 66.543 19.1758C62.4163 19.1758 60.3906 16.6054 60.3906 13.05ZM68.9559 12.1678C68.9559 10.533 68.2806 9.23572 66.5357 9.23572C64.7906 9.23572 64.1214 10.533 64.1214 12.1678V13.3102C64.1214 14.9451 64.7967 16.2423 66.5357 16.2423C68.2746 16.2423 68.9559 14.9451 68.9559 13.3102V12.1678Z" fill="#1877F2"/>
<path d="M73.9375 13.05V12.428C73.9375 8.87146 75.9621 6.30237 80.0886 6.30237C84.2151 6.30237 86.2397 8.87146 86.2397 12.428V13.05C86.2397 16.6054 84.2151 19.1758 80.0886 19.1758C75.9621 19.1758 73.9375 16.6054 73.9375 13.05ZM82.5027 12.1678C82.5027 10.533 81.8275 9.23572 80.0886 9.23572C78.3496 9.23572 77.6756 10.533 77.6756 12.1678V13.3102C77.6756 14.9451 78.3496 16.2423 80.0886 16.2423C81.8275 16.2423 82.5027 14.9451 82.5027 13.3102V12.1678Z" fill="#1877F2"/>
<path d="M91.3787 12.4533L95.0636 6.56246H99.034L95.1676 12.6615L99.1901 18.9154H95.2197L91.3787 12.8648V18.9154H87.6406V0.359343L91.3787 0.0205078V12.4533Z" fill="#1877F2"/>
</g>
<defs>
<clipPath id="clip0_1_2829">
<rect width="100" height="20.6349" fill="white"/>
</clipPath>
</defs>
</svg>

<svg xmlns="http://www.w3.org/2000/svg" width="304.762" height="64" fill="none" viewBox="0 0 100 21"><g fill="#1877F2" clip-path="url(#a)"><path d="M7.76 3.007c-1.167 0-1.505.518-1.505 1.66v1.896H9.37l-.312 3.061H6.256v9.292H2.518V9.624H0V6.563h2.518V4.72C2.518 1.63 3.763 0 7.238 0c.728-.002 1.455.042 2.178.13v2.88l-1.655-.003ZM9.633 12.35c0-3.452 1.635-6.051 5.06-6.051 1.869 0 3.01.96 3.556 2.154v-1.89h3.58v12.353h-3.58v-1.869c-.52 1.195-1.687 2.129-3.555 2.129-3.426 0-5.061-2.596-5.061-6.05v-.776Zm3.737.83c0 1.843.674 3.062 2.413 3.062 1.532 0 2.31-1.115 2.31-2.88v-1.24c0-1.764-.778-2.88-2.31-2.88-1.74 0-2.413 1.22-2.413 3.061v.878ZM29.611 6.302c1.452 0 2.828.313 3.581.83l-.83 2.648a5.88 5.88 0 0 0-2.492-.57c-2.024 0-2.904 1.167-2.904 3.166v.726c0 2 .882 3.167 2.904 3.167a5.88 5.88 0 0 0 2.492-.571l.83 2.646c-.753.52-2.128.832-3.58.832-4.387 0-6.385-2.362-6.385-6.151v-.572c0-3.788 1.997-6.15 6.384-6.15ZM33.688 13.21v-1.088c0-3.504 1.997-5.809 6.073-5.809 3.841 0 5.528 2.336 5.528 5.762v1.972h-7.866c.079 1.687.831 2.44 2.904 2.44 1.403 0 2.882-.286 3.972-.753l.684 2.56c-.986.52-3.011.908-4.8.908-4.731-.001-6.495-2.36-6.495-5.991Zm3.736-1.609h4.517v-.31c0-1.35-.545-2.42-2.179-2.42-1.688 0-2.338 1.065-2.338 2.726v.004ZM59.14 13.129c0 3.45-1.66 6.05-5.083 6.05-1.868 0-3.165-.934-3.684-2.128v1.868h-3.53V.359l3.738-.338v8.253c.544-1.09 1.739-1.973 3.478-1.973 3.425 0 5.082 2.596 5.082 6.05l-.001.778Zm-3.737-.857c0-1.74-.674-3.036-2.465-3.036-1.532 0-2.362 1.089-2.362 2.854v1.298c0 1.764.83 2.854 2.362 2.854 1.791 0 2.465-1.297 2.465-3.036v-.934ZM60.39 13.05v-.622c0-3.557 2.025-6.126 6.152-6.126 4.126 0 6.152 2.57 6.152 6.126v.622c0 3.555-2.025 6.126-6.151 6.126-4.127 0-6.152-2.57-6.152-6.126Zm8.566-.882c0-1.635-.675-2.932-2.42-2.932-1.745 0-2.415 1.297-2.415 2.932v1.142c0 1.635.676 2.932 2.415 2.932 1.739 0 2.42-1.297 2.42-2.932v-1.142ZM73.938 13.05v-.622c0-3.557 2.024-6.126 6.15-6.126 4.127 0 6.152 2.57 6.152 6.126v.622c0 3.555-2.025 6.126-6.151 6.126-4.127 0-6.151-2.57-6.151-6.126Zm8.565-.882c0-1.635-.675-2.932-2.414-2.932-1.74 0-2.413 1.297-2.413 2.932v1.142c0 1.635.674 2.932 2.413 2.932 1.739 0 2.414-1.297 2.414-2.932v-1.142ZM91.379 12.453l3.685-5.89h3.97l-3.866 6.099 4.022 6.253h-3.97l-3.841-6.05v6.05H87.64V.36l3.738-.338v12.432Z"/></g><defs><clipPath id="a"><path fill="#fff" d="M0 0h100v20.635H0z"/></clipPath></defs></svg>
